X:55
T:Goat Gods and Bean Dip
R:waltz
C: 1988, 2010 L.E. McCullough  
M:3/4
L:1/8
K:D
ag|:fA df ed|eA ce dc|dG Bd AG|A4 Bd|
fB gf ed|e~A3 gf|ed cd ef|e4 ag|
fA df ed|eA ce dc|dG Bd AG|A4 Bd|
fB gf ed|e~A3 gf|eA ce dc|1 d4 ag:|2 d4 cd|]
|:e~A3 gf|e~A3 de|fA gf ed|e~a3 gf|
eA ef ed|ea gf ed|Bd ga fg|e4 ag|
fA df ed|eA ce dc|dGBdAG|A4Bd|
fB gf ed|eA ce dc|dF Ad fe|1 d4 cd:|2 d4 ag|]


